X:0127
T:Quick March by Mr. Handel
M:2/4
L:1/8
Q:1/4=84
I: :: ::
Z:Jack Campin * www.campin.me.uk * 2009
K:G
(d/c/)    |Bd`````````AB       |GD`D`E        |F>G`A```B    |(G/F/)(G/A/) GA   |
          (B/A/B/)c/  de       |cA`A`G        |Fd``E``^c    | d2         [dD] :|
(d/e//f//)|ec`````````ce       |dB`d`g        |cA (A/B/c/A/)| BGGA             |
           BG`````````cA       |BG`G`A        |BG``c```A    | BGGA             |
           Bc/d/      cB       |BA z(d/e//f//)|gf``e```d    | gGGF             |
          (E/F/G/E/) (D/E/F/D/)|CA`A`C        |B,G`A,``F    | G2         [GG,]:|
<end>
<start>
